packages/dnb-ui-lib/assets/icons/wearables_medium.svg

<svg width="24" height="24" viewBox="0 0 24 24" fill="none" xmlns="http://www.w3.org/2000/svg">
<path d="M9.25 18.5C9.25 18.0858 8.91421 17.75 8.5 17.75C8.08579 17.75 7.75 18.0858 7.75 18.5H9.25ZM16.25 18.5C16.25 18.0858 15.9142 17.75 15.5 17.75C15.0858 17.75 14.75 18.0858 14.75 18.5H16.25ZM15.0899 1.42958L14.5474 1.94743V1.94743L15.0899 1.42958ZM14.75 5.5C14.75 5.91421 15.0858 6.25 15.5 6.25C15.9142 6.25 16.25 5.91421 16.25 5.5H14.75ZM7.75 5.5C7.75 5.91421 8.08579 6.25 8.5 6.25C8.91421 6.25 9.25 5.91421 9.25 5.5H7.75ZM8.91005 1.42958L9.45257 1.94743L8.91005 1.42958ZM14.1 22.25H9.89999V23.75H14.1V22.25ZM9.89999 22.25C9.73916 22.25 9.57744 22.1834 9.45257 22.0526L8.36753 23.0883C8.76775 23.5076 9.31822 23.75 9.89999 23.75V22.25ZM9.45257 22.0526C9.32656 21.9206 9.25 21.7344 9.25 21.5333H7.75C7.75 22.1103 7.96844 22.6702 8.36753 23.0883L9.45257 22.0526ZM9.25 21.5333V18.5H7.75V21.5333H9.25ZM14.75 18.5V21.5333H16.25V18.5H14.75ZM14.75 21.5333C14.75 21.7344 14.6734 21.9206 14.5474 22.0526L15.6324 23.0883C16.0315 22.6702 16.25 22.1103 16.25 21.5333H14.75ZM14.5474 22.0526C14.4225 22.1834 14.2608 22.25 14.1 22.25V23.75C14.6817 23.75 15.2322 23.5076 15.6324 23.0883L14.5474 22.0526ZM9.89999 1.75H14.1V0.25H9.89999V1.75ZM14.1 1.75C14.2608 1.75 14.4225 1.81661 14.5474 1.94743L15.6324 0.911721C15.2322 0.492437 14.6817 0.25 14.1 0.25V1.75ZM14.5474 1.94743C14.6734 2.07944 14.75 2.26563 14.75 2.46667H16.25C16.25 1.88974 16.0315 1.32982 15.6324 0.911721L14.5474 1.94743ZM14.75 2.46667V5.5H16.25V2.46667H14.75ZM9.25 5.5V2.46667H7.75V5.5H9.25ZM9.25 2.46667C9.25 2.26563 9.32656 2.07944 9.45257 1.94743L8.36753 0.911721C7.96844 1.32982 7.75 1.88974 7.75 2.46667H9.25ZM9.45257 1.94743C9.57744 1.81661 9.73916 1.75 9.89999 1.75V0.25C9.31822 0.25 8.76775 0.492437 8.36753 0.911721L9.45257 1.94743ZM18.25 12C18.25 15.4518 15.4518 18.25 12 18.25V19.75C16.2802 19.75 19.75 16.2802 19.75 12H18.25ZM12 18.25C8.54822 18.25 5.75 15.4518 5.75 12H4.25C4.25 16.2802 7.71979 19.75 12 19.75V18.25ZM5.75 12C5.75 8.54822 8.54822 5.75 12 5.75V4.25C7.71979 4.25 4.25 7.71979 4.25 12H5.75ZM12 5.75C15.4518 5.75 18.25 8.54822 18.25 12H19.75C19.75 7.71979 16.2802 4.25 12 4.25V5.75Z" fill="black"/>
</svg>

<svg width="24" height="24" viewBox="0 0 24 24" fill="none" xmlns="http://www.w3.org/2000/svg"><path d="M9.25 18.5a.75.75 0 00-1.5 0h1.5zm7 0a.75.75 0 00-1.5 0h1.5zM15.09 1.43l-.543.517.543-.517zm-.34 4.07a.75.75 0 001.5 0h-1.5zm-7 0a.75.75 0 001.5 0h-1.5zm1.16-4.07l.543.517-.543-.517zm5.19 20.82H9.9v1.5h4.2v-1.5zm-4.2 0a.619.619 0 01-.447-.197l-1.085 1.035c.4.42.95.662 1.532.662v-1.5zm-.447-.197a.753.753 0 01-.203-.52h-1.5c0 .577.218 1.137.618 1.555l1.085-1.035zm-.203-.52V18.5h-1.5v3.033h1.5zm5.5-3.033v3.033h1.5V18.5h-1.5zm0 3.033a.753.753 0 01-.203.52l1.085 1.035c.4-.418.618-.978.618-1.555h-1.5zm-.203.52a.619.619 0 01-.447.197v1.5c.582 0 1.132-.242 1.532-.662l-1.085-1.035zM9.9 1.75h4.2V.25H9.9v1.5zm4.2 0c.16 0 .322.067.447.197L15.632.912c-.4-.42-.95-.662-1.532-.662v1.5zm.447.197a.753.753 0 01.203.52h1.5c0-.577-.218-1.137-.618-1.555l-1.085 1.035zm.203.52V5.5h1.5V2.467h-1.5zM9.25 5.5V2.467h-1.5V5.5h1.5zm0-3.033c0-.201.077-.388.203-.52L8.368.912c-.4.418-.618.978-.618 1.555h1.5zm.203-.52A.619.619 0 019.9 1.75V.25c-.582 0-1.132.242-1.532.662l1.085 1.035zM18.25 12A6.25 6.25 0 0112 18.25v1.5A7.75 7.75 0 0019.75 12h-1.5zM12 18.25A6.25 6.25 0 015.75 12h-1.5A7.75 7.75 0 0012 19.75v-1.5zM5.75 12A6.25 6.25 0 0112 5.75v-1.5A7.75 7.75 0 004.25 12h1.5zM12 5.75A6.25 6.25 0 0118.25 12h1.5A7.75 7.75 0 0012 4.25v1.5z" fill="#000"/></svg>
